X: 9497
T: Dark Island, The
R: waltz
M: 3/4
K: Gmajor
EG|:A4 A2|G4 G2|E3 D C2|D4 GA|
[1 B3 A G2|B d3 G2|B3 A G2|A4 E2:|
[2 B3 D dB|A3 D BA|G6|G4 Bc||
d2 B2 d2|B3 A G2|E3 C E2|D4 GA|
B3 A G2|B d3 GA|B3 A G2|A4 E2|
A4 A2|G4 G2|E3 D C2|D4 GA|
B3 D dB|A3 D BA|G6|G6||

